X: 30099
T: Olaf's
R: polka
M: 2/4
K: Bminor
|:"D"fded|"D"fd"G"ga/g/|"D"fdeg|"D"fd"A"ed|
"Bm"fe/d/cB|"Bm"de"A"cB|"D"fAdf|"A"ed "D"d2:|
|:"Bm"fBdf|"A"eAce|"Bm"fBdf|"D"ag/f/"A"eA|
"D"df"A"eg|"Bm"fBdf|"Bm"BdfA|"A"ed/c/ "Bm"B2:|

